X: 1
T: Devoj\vce, devoj\vce
Z: 2008 John Chambers <jc:trillian.mit.edu>
N: Lyrics from http://www.gugalyrics.com/ et al.
Q: 2/8 3/8 2/8 2/8
M: 9/8
L: 1/8
K: Gmix
"^Instr:"\
|: "G"de fed cB AG |1,3 "G"Bc "D"dec "G"d2 g2 :|2,4 "G"Bc "D"dec "G"d2 d2 :|
"^Vocal:"\
|: de f2g fe f2 | gg g2e fe d2 :|
w: 1.~De-voj-\vce, de-voj-*\vce cr-ve-no, jam-bol-*\vce.
w: 2.~Iz-go-rev za te-*be ka-ko len za vo-*da.
w: 3.~Go-ri, lu-do, go-*ri i jas ta-ko go-*ram.
w: 4.~Ma-ma ne me da-*va u\vs-te go-di-na-*va,
[| gg g2e fe d2 | de fed e2 e2 |
w: Ne stoj spro-ti me-*ne iz-go-rev* za te-be
w: Ka-ko len za vo-*da bo-si-lek* za ro-sa.
w: I jas ta-ko go-*ram ne-mo \vsto* da sto-ram.
w: u\vs-te go-di-na-*va, o-ti sum* mal-e\vc-ka,
| gg g2e fe d2 | de feg d2 d2 |]
w: Ne sto spro-ti me-*ne iz-go-rev* za te-be.
w: Ka-ko len za vo-*da bo-si-lek* za ro-sa.
w: Ka-ko len za vo-*da ne-mo \vsto* da sto-ram.
w: u\vs-te go-di-na-*va, o-ti sum* mal-e\vc-ka.

%%sep 1 1 500

